src/lib/packages/icons/src/assets/line/file-user.svg

<svg width="24" height="24" viewBox="0 0 24 24" fill="none" xmlns="http://www.w3.org/2000/svg">
<path d="M20.53 8.47L14.53 2.47C14.389 2.329 14.199 2.25 14 2.25H8C5.582 2.25 4.25 3.582 4.25 6V18C4.25 20.418 5.582 21.75 8 21.75H17C19.418 21.75 20.75 20.418 20.75 18V9C20.75 8.801 20.671 8.61 20.53 8.47ZM14.75 4.811L18.189 8.25H17C15.423 8.25 14.75 7.577 14.75 6V4.811ZM19.25 18C19.25 19.577 18.577 20.25 17 20.25H8C6.423 20.25 5.75 19.577 5.75 18V6C5.75 4.423 6.423 3.75 8 3.75H13.25V6C13.25 8.418 14.582 9.75 17 9.75H19.25V18ZM12.5 14.55C13.823 14.55 14.8999 13.474 14.8999 12.15C14.8999 10.827 13.823 9.75 12.5 9.75C11.177 9.75 10.1001 10.827 10.1001 12.15C10.1001 13.474 11.177 14.55 12.5 14.55ZM12.5 11.25C12.996 11.25 13.3999 11.654 13.3999 12.15C13.3999 12.647 12.996 13.05 12.5 13.05C12.004 13.05 11.6001 12.647 11.6001 12.15C11.6001 11.654 12.004 11.25 12.5 11.25ZM16.25 18.197V18.5C16.25 18.914 15.914 19.25 15.5 19.25C15.086 19.25 14.75 18.914 14.75 18.5V18.197C14.75 17.476 14.2531 16.75 13.1421 16.75H11.8589C10.7479 16.75 10.251 17.477 10.251 18.197V18.5C10.251 18.914 9.91498 19.25 9.50098 19.25C9.08698 19.25 8.75098 18.914 8.75098 18.5V18.197C8.75098 16.732 9.81789 15.25 11.8589 15.25H13.1421C15.1831 15.25 16.25 16.732 16.25 18.197Z" fill="currentColor"/>
</svg>

<svg xmlns="http://www.w3.org/2000/svg" width="24" height="24" fill="none"><path fill="currentColor" d="m20.53 8.47-6-6a.749.749 0 0 0-.53-.22H8C5.582 2.25 4.25 3.582 4.25 6v12c0 2.418 1.332 3.75 3.75 3.75h9c2.418 0 3.75-1.332 3.75-3.75V9a.747.747 0 0 0-.22-.53Zm-5.78-3.659 3.439 3.439H17c-1.577 0-2.25-.673-2.25-2.25V4.811ZM19.25 18c0 1.577-.673 2.25-2.25 2.25H8c-1.577 0-2.25-.673-2.25-2.25V6c0-1.577.673-2.25 2.25-2.25h5.25V6c0 2.418 1.332 3.75 3.75 3.75h2.25V18Zm-6.75-3.45c1.323 0 2.4-1.076 2.4-2.4 0-1.323-1.077-2.4-2.4-2.4a2.403 2.403 0 0 0-2.4 2.4c0 1.324 1.077 2.4 2.4 2.4Zm0-3.3a.9.9 0 1 1-.001 1.799.9.9 0 0 1 .001-1.799Zm3.75 6.947v.303a.75.75 0 0 1-1.5 0v-.303c0-.721-.497-1.447-1.608-1.447H11.86c-1.111 0-1.608.727-1.608 1.447v.303a.75.75 0 0 1-1.5 0v-.303c0-1.465 1.067-2.947 3.108-2.947h1.283c2.041 0 3.108 1.482 3.108 2.947Z"/></svg>
